src/assets/images/social/twitter.svg

<svg width="23px" height="20px" viewBox="0 0 23 20" version="1.1" xmlns="http://www.w3.org/2000/svg" xmlns:xlink="http://www.w3.org/1999/xlink">
    <g id="Desktop" stroke="none" stroke-width="1px" fill="#ffffff" fill-rule="evenodd" opacity="0.300000012">
        <g id="Desktop---Footer-v7-light" transform="translate(-861.000000, -4452.000000)" fill="#ffffff" stroke="none" stroke-width="1px">
            <g id="footer" transform="translate(0.000000, 4134.000000)" stroke="none" fill="#ffffff" stroke-width="1px">
                <g id="social" transform="translate(810.000000, 317.000000)" stroke="none" fill="#ffffff" stroke-width="1px">
                    <g id="twitter_filled" transform="translate(51.000000, 1.000000)" stroke="none" fill="#ffffff" stroke-width="1px">
                        <path d="M22.4443,2.98315789 C21.6303,3.36526316 20.9443,3.37789474 20.2163,3 C21.1553,2.40842105 21.1983,1.99368421 21.5373,0.874736842 C20.6593,1.42315789 19.6863,1.82210526 18.6513,2.03789474 C17.8233,1.10842105 16.6413,0.526315789 15.3353,0.526315789 C12.8253,0.526315789 10.7913,2.66947368 10.7913,5.30947368 C10.7913,5.68526316 10.8313,6.05052632 10.9083,6.4 C7.1313,6.20105263 3.7833,4.29578947 1.5423,1.40105263 C1.1513,2.10842105 0.9263,2.93052632 0.9263,3.80736842 C0.9263,5.46736842 1.7293,6.93052632 2.9483,7.78842105 C2.2033,7.76315789 1.5033,7.54842105 0.8903,7.19052632 C0.8893,7.21052632 0.8893,7.22947368 0.8893,7.25052632 C0.8893,9.56842105 2.4563,11.5010526 4.5353,11.9410526 C3.8693,12.1315789 3.1673,12.1610526 2.4823,12.0231579 C3.0613,13.9231579 4.7393,15.3063158 6.7273,15.3452632 C4.7833,16.9494737 2.3723,17.6178947 0.0003,17.3252632 C2.0113,18.6821053 4.3993,19.4736842 6.9653,19.4736842 C15.3243,19.4736842 19.8933,12.1852632 19.8933,5.86421053 C19.8933,5.65578947 19.8903,5.45157895 19.8813,5.24526316 C20.7683,4.57157895 21.8353,3.94315789 22.4443,2.98315789" id="Fill-264" stroke="none" fill="#ffffff" stroke-width="1px"></path>
                    </g>
                </g>
            </g>
        </g>
    </g>
</svg>

<svg width="23" height="20" xmlns="http://www.w3.org/2000/svg"><path d="M22.444 2.983c-.814.382-1.5.395-2.228.017.94-.592.982-1.006 1.321-2.125a8.857 8.857 0 01-2.886 1.163c-.828-.93-2.01-1.512-3.316-1.512-2.51 0-4.544 2.143-4.544 4.783 0 .376.04.742.117 1.091-3.777-.199-7.125-2.104-9.366-4.999a4.964 4.964 0 00-.616 2.406c0 1.66.803 3.124 2.022 3.981A4.364 4.364 0 01.89 7.191v.06c0 2.317 1.566 4.25 3.645 4.69a4.34 4.34 0 01-2.053.082c.58 1.9 2.257 3.283 4.245 3.322C4.783 16.95 2.372 17.618 0 17.325a12.4 12.4 0 006.965 2.149c8.36 0 12.928-7.289 12.928-13.61 0-.208-.003-.412-.012-.619.887-.673 1.954-1.302 2.563-2.262"/></svg>
